source/images/logo/laravel.svg

<svg fill="none" height="64" viewBox="0 0 62 64" width="62" xmlns="http://www.w3.org/2000/svg" xmlns:xlink="http://www.w3.org/1999/xlink"><clipPath id="a"><path d="m.018799 0h61.5385v64h-61.5385z"/></clipPath><g clip-path="url(#a)"><path clip-rule="evenodd" d="m61.097 14.2325c.0226.0838.0342.1703.0344.2572v13.504c0 .1733-.0457.3436-.1326.4935-.0869.15-.2118.2744-.3622.3606l-11.3341 6.5256v12.9341c0 .352-.1871.677-.4923.8542l-23.6591 13.6197c-.0541.0308-.1132.0504-.1723.0714-.0222.0074-.0431.0209-.0665.027-.1653.0436-.3392.0436-.5046 0-.0271-.0073-.0517-.0221-.0775-.032-.0542-.0196-.1108-.0369-.1625-.0664l-23.654132-13.6197c-.150268-.0863-.275125-.2107-.361988-.3607-.0868631-.15-.1326621-.3202-.1327812-.4935v-40.51196c0-.08862.0123077-.17477.0344616-.25847.0073846-.0283.0246154-.05415.0344615-.08246.0184611-.05169.0356921-.10461.0627691-.15261.018462-.032.045539-.05785.067692-.08739.028308-.03938.054154-.08.087385-.11446.028308-.02831.065231-.04923.097231-.07385.035692-.02953.067692-.06153.108308-.08492h.00123l11.827663-6.809846c.1498-.086178.3196-.131534.4923-.131534.1728 0 .3426.045356.4923.131534l11.8277 6.809846h.0025c.0394.02462.0726.05539.1083.08369.032.02462.0677.04677.096.07385.0345.03569.0591.07631.0886.11569.0209.02954.0493.05539.0665.08739.0283.04923.0443.10092.064.15261.0098.02831.0271.05416.0344.08369.0227.08388.0343.17036.0345.25724v25.30336l9.856-5.6751v-12.9353c0-.0862.0123-.1736.0345-.256.0086-.0296.0246-.0554.0344-.0837.0197-.0517.037-.1046.064-.1526.0185-.032.0456-.0579.0665-.0874.0295-.0394.0541-.08.0886-.1145.0283-.0283.064-.0492.096-.0738.0369-.0296.0689-.0616.1083-.085h.0012l11.829-6.80981c.1497-.0863.3195-.13172.4923-.13172s.3426.04542.4923.13172l11.8277 6.80981c.0418.0247.0738.0554.1107.0837.0308.0246.0665.0468.0948.0739.0345.0357.0591.0763.0886.1157.0222.0295.0493.0554.0665.0874.0283.048.0443.1009.064.1526.0111.0283.0271.0541.0345.0837zm-1.9373 13.1913v-11.2295l-4.1391 2.3828-5.7181 3.2923v11.2295l9.8585-5.6751zm-11.8277 20.3139v-11.2369l-5.6246 3.2123-16.0615 9.1667v11.3428zm-45.34151-38.23755v38.23755l21.68371 12.4837v-11.3403l-11.328-6.4111-.0037-.0025-.0049-.0024c-.0382-.0222-.0702-.0542-.1059-.0813-.0307-.0246-.0664-.0443-.0935-.0713l-.0025-.0037c-.032-.0308-.0541-.069-.0812-.1034-.0246-.0332-.0542-.0616-.0739-.096l-.0012-.0037c-.0221-.0369-.0357-.0812-.0517-.1231-.016-.0369-.0369-.0714-.0467-.1108v-.0012c-.0124-.0468-.0148-.096-.0197-.144-.005-.0369-.0148-.0738-.0148-.1108v-.0024-26.4382l-5.71693-3.2935-4.13908-2.38032zm10.84311-7.37723-9.8548 5.67262 9.8523 5.67266 9.8535-5.6739-9.8535-5.67138zm5.1249 35.40188 5.7169-3.2911v-24.73355l-4.1391 2.38275-5.7181 3.2923v24.7336zm30.3594-28.70773-9.8536 5.67263 9.8536 5.6726 9.8523-5.6738zm-.9859 13.05233-5.7181-3.2923-4.1391-2.3828v11.2295l5.7169 3.2911 4.1403 2.384zm-22.6732 25.3058 14.4529-8.251 7.2246-4.1231-9.8461-5.6689-11.3366 6.5267-10.3323 5.9483z" fill="#ff2d20" fill-rule="evenodd"/></g></svg>

<svg width="62" height="64" viewBox="0 0 62 64" fill="none" xmlns="http://www.w3.org/2000/svg">
<g clip-path="url(#clip0)">
<path fill-rule="evenodd" clip-rule="evenodd" d="M61.097 14.2325C61.1196 14.3163 61.1312 14.4028 61.1314 14.4897V27.9937C61.1314 28.167 61.0857 28.3373 60.9988 28.4872C60.9119 28.6372 60.787 28.7616 60.6366 28.8478L49.3025 35.3734V48.3075C49.3025 48.6595 49.1154 48.9845 48.8102 49.1617L25.1511 62.7814C25.097 62.8122 25.0379 62.8318 24.9788 62.8528C24.9566 62.8602 24.9357 62.8737 24.9123 62.8798C24.747 62.9234 24.5731 62.9234 24.4077 62.8798C24.3806 62.8725 24.356 62.8577 24.3302 62.8478C24.276 62.8282 24.2194 62.8109 24.1677 62.7814L0.513568 49.1617C0.3633 49.0754 0.238443 48.951 0.15158 48.801C0.0647169 48.651 0.0189179 48.4808 0.0187988 48.3075L0.0187988 7.79554C0.0187988 7.70692 0.0311065 7.62077 0.0532604 7.53707C0.060645 7.50877 0.0778758 7.48292 0.0877219 7.45461C0.106183 7.40292 0.123414 7.35 0.150491 7.302C0.168953 7.27 0.19603 7.24415 0.218183 7.21461C0.246491 7.17523 0.272337 7.13461 0.305568 7.10015C0.333876 7.07184 0.370799 7.05092 0.402799 7.0263C0.438491 6.99677 0.470491 6.96477 0.511107 6.94138H0.512337L12.34 0.131534C12.4898 0.045356 12.6596 0 12.8323 0C13.0051 0 13.1749 0.045356 13.3246 0.131534L25.1523 6.94138H25.1548C25.1942 6.966 25.2274 6.99677 25.2631 7.02507C25.2951 7.04969 25.3308 7.07184 25.3591 7.09892C25.3936 7.13461 25.4182 7.17523 25.4477 7.21461C25.4686 7.24415 25.497 7.27 25.5142 7.302C25.5425 7.35123 25.5585 7.40292 25.5782 7.45461C25.588 7.48292 25.6053 7.50877 25.6126 7.5383C25.6353 7.62218 25.6469 7.70866 25.6471 7.79554V33.0989L35.5031 27.4238V14.4885C35.5031 14.4023 35.5154 14.3149 35.5376 14.2325C35.5462 14.2029 35.5622 14.1771 35.572 14.1488C35.5917 14.0971 35.609 14.0442 35.636 13.9962C35.6545 13.9642 35.6816 13.9383 35.7025 13.9088C35.732 13.8694 35.7566 13.8288 35.7911 13.7943C35.8194 13.766 35.8551 13.7451 35.8871 13.7205C35.924 13.6909 35.956 13.6589 35.9954 13.6355H35.9966L47.8256 6.82569C47.9753 6.73939 48.1451 6.69397 48.3179 6.69397C48.4907 6.69397 48.6605 6.73939 48.8102 6.82569L60.6379 13.6355C60.6797 13.6602 60.7117 13.6909 60.7486 13.7192C60.7794 13.7438 60.8151 13.766 60.8434 13.7931C60.8779 13.8288 60.9025 13.8694 60.932 13.9088C60.9542 13.9383 60.9813 13.9642 60.9985 13.9962C61.0268 14.0442 61.0428 14.0971 61.0625 14.1488C61.0736 14.1771 61.0896 14.2029 61.097 14.2325ZM59.1597 27.4238V16.1943L55.0206 18.5771L49.3025 21.8694V33.0989L59.161 27.4238H59.1597ZM47.332 47.7377V36.5008L41.7074 39.7131L25.6459 48.8798V60.2226L47.332 47.7377ZM1.99049 9.50015V47.7377L23.6742 60.2214V48.8811L12.3462 42.47L12.3425 42.4675L12.3376 42.4651C12.2994 42.4429 12.2674 42.4109 12.2317 42.3838C12.201 42.3592 12.1653 42.3395 12.1382 42.3125L12.1357 42.3088C12.1037 42.278 12.0816 42.2398 12.0545 42.2054C12.0299 42.1722 12.0003 42.1438 11.9806 42.1094L11.9794 42.1057C11.9573 42.0688 11.9437 42.0245 11.9277 41.9826C11.9117 41.9457 11.8908 41.9112 11.881 41.8718V41.8706C11.8686 41.8238 11.8662 41.7746 11.8613 41.7266C11.8563 41.6897 11.8465 41.6528 11.8465 41.6158V41.6134V15.1752L6.12957 11.8817L1.99049 9.50138V9.50015ZM12.8336 2.12292L2.9788 7.79554L12.8311 13.4682L22.6846 7.7943L12.8311 2.12292H12.8336ZM17.9585 37.5248L23.6754 34.2337V9.50015L19.5363 11.8829L13.8182 15.1752V39.9088L17.9585 37.5248ZM48.3179 8.81707L38.4643 14.4897L48.3179 20.1623L58.1702 14.4885L48.3179 8.81707ZM47.332 21.8694L41.6139 18.5771L37.4748 16.1943V27.4238L43.1917 30.7149L47.332 33.0989V21.8694ZM24.6588 47.1752L39.1117 38.9242L46.3363 34.8011L36.4902 29.1322L25.1536 35.6589L14.8213 41.6072L24.6588 47.1752Z" fill="#FF2D20"/>
</g>
<defs>
<clipPath id="clip0">
<rect width="61.5385" height="64" fill="white" transform="translate(0.0187988)"/>
</clipPath>
</defs>
</svg>
